images/feature-icon-5.svg

<svg width="44" height="44" viewBox="0 0 44 44" fill="none" xmlns="http://www.w3.org/2000/svg">
<path d="M41.1797 17.1239H35.9297C35.4766 17.1239 35.1094 17.4913 35.1094 17.9443V22.0868C35.1094 22.5398 35.4766 22.9071 35.9297 22.9071C36.3827 22.9071 36.75 22.5398 36.75 22.0868V18.7646H40.3594V40.3594H38.5547H36.75V28.2392C36.75 27.7862 36.3827 27.4189 35.9297 27.4189C35.4766 27.4189 35.1094 27.7862 35.1094 28.2392V40.3594H33.4688V23.3789C33.4688 22.9259 33.1015 22.5586 32.6484 22.5586H27.3984C26.9454 22.5586 26.5781 22.9259 26.5781 23.3789V40.3594H24.9375V29.1211C24.9375 28.6681 24.5702 28.3008 24.1172 28.3008H18.8672C18.4141 28.3008 18.0469 28.6681 18.0469 29.1211V40.3594H16.4062V33.8276C16.4062 33.3747 16.039 33.0073 15.5859 33.0073H10.3359C9.88288 33.0073 9.51562 33.3747 9.51562 33.8276V40.3594H2.46094C2.00862 40.3594 1.64062 39.9914 1.64062 39.5391V2.46094C1.64062 2.00862 2.00862 1.64062 2.46094 1.64062H23.6229V7.05493C23.6229 8.41189 24.7269 9.51587 26.0839 9.51587H31.4979V19.6055C31.4979 20.0584 31.8652 20.4258 32.3183 20.4258C32.7713 20.4258 33.1386 20.0584 33.1386 19.6055V8.69556C33.1386 8.47801 33.0521 8.26941 32.8983 8.11551L25.0233 0.24027C24.8694 0.0864609 24.6608 0 24.4433 0H2.46094C1.10398 0 0 1.10398 0 2.46094V39.5391C0 40.896 1.10398 42 2.46094 42H41.1797C41.6327 42 42 41.6327 42 41.1797V17.9443C42 17.4913 41.6327 17.1239 41.1797 17.1239ZM25.2636 2.80079L30.3379 7.87525H26.0839C25.6315 7.87525 25.2636 7.50725 25.2636 7.05493V2.80079ZM14.7656 40.3594H11.1562V34.6479H14.7656V40.3594ZM23.2969 40.3594H19.6875V29.9414H23.2969V40.3594ZM31.8281 40.3594H28.2188V24.1992H31.8281V40.3594Z" fill="white"/>
<path d="M38.2482 25.594C38.0884 25.4333 37.8666 25.3422 37.6406 25.3422C37.4146 25.3422 37.1929 25.4333 37.033 25.594C36.8732 25.7538 36.7812 25.9755 36.7812 26.2015C36.7812 26.4276 36.8732 26.6493 37.033 26.8091C37.1929 26.9689 37.4146 27.0609 37.6406 27.0609C37.8666 27.0609 38.0884 26.969 38.2482 26.8091C38.408 26.6493 38.5 26.4276 38.5 26.2015C38.5 25.9755 38.408 25.7538 38.2482 25.594Z" fill="white"/>
<path d="M12.5105 4.70325C12.0359 4.70325 11.6512 5.08807 11.6512 5.56262V7.10855C7.69538 7.53798 4.60645 10.8981 4.60645 14.9662C4.60645 19.3246 8.15223 22.8703 12.5105 22.8703C16.5787 22.8703 19.9388 19.7815 20.3682 15.8256H21.9141C22.3887 15.8256 22.7735 15.4408 22.7735 14.9662C22.7735 9.30718 18.1695 4.70325 12.5105 4.70325ZM12.5105 21.1515C9.09994 21.1515 6.32519 18.3768 6.32519 14.9662C6.32519 11.8472 8.64594 9.26 11.6512 8.84036V14.9662C11.6512 15.4407 12.0359 15.8255 12.5105 15.8255H18.6363C18.2167 18.8308 15.6295 21.1515 12.5105 21.1515ZM13.3699 14.1069V14.1068V6.46488C17.3963 6.86896 20.6077 10.0805 21.0118 14.1069H13.3699Z" fill="white"/>
<path d="M21.9141 25.2871H5.5C5.02537 25.2871 4.64062 25.6719 4.64062 26.1465C4.64062 26.621 5.02537 27.0059 5.5 27.0059H21.9141C22.3887 27.0059 22.7734 26.621 22.7734 26.1465C22.7734 25.6719 22.3887 25.2871 21.9141 25.2871Z" fill="white"/>
<path d="M11 29.4336H5.5C5.02537 29.4336 4.64062 29.8184 4.64062 30.293C4.64062 30.7675 5.02537 31.1523 5.5 31.1523H11C11.4746 31.1523 11.8594 30.7675 11.8594 30.293C11.8594 29.8184 11.4746 29.4336 11 29.4336Z" fill="white"/>
<path d="M15.9113 29.6854C15.7515 29.5255 15.5298 29.4336 15.3038 29.4336C15.0769 29.4336 14.856 29.5255 14.6962 29.6854C14.5355 29.8452 14.4444 30.067 14.4444 30.293C14.4444 30.519 14.5355 30.7407 14.6962 30.9005C14.856 31.0603 15.0769 31.1523 15.3038 31.1523C15.5298 31.1523 15.7515 31.0604 15.9113 30.9005C16.0712 30.7407 16.1631 30.519 16.1631 30.293C16.1631 30.067 16.0712 29.8452 15.9113 29.6854Z" fill="white"/>
</svg>

<svg xmlns="http://www.w3.org/2000/svg" width="44" height="44" fill="none"><path fill="#fff" d="M41.18 17.124h-5.25a.82.82 0 0 0-.82.82v4.143a.82.82 0 1 0 1.64 0v-3.322h3.61v21.594h-3.61V28.24a.82.82 0 0 0-1.64 0v12.12h-1.641V23.38a.82.82 0 0 0-.82-.82h-5.25a.82.82 0 0 0-.82.82v16.98h-1.642V29.121a.82.82 0 0 0-.82-.82h-5.25a.82.82 0 0 0-.82.82V40.36h-1.64v-6.531a.82.82 0 0 0-.821-.82h-5.25a.82.82 0 0 0-.82.82v6.531H2.46a.82.82 0 0 1-.82-.82V2.461c0-.452.368-.82.82-.82h21.162v5.414a2.464 2.464 0 0 0 2.46 2.46h5.415v10.09a.82.82 0 0 0 1.64 0V8.696a.82.82 0 0 0-.24-.58L25.023.24a.82.82 0 0 0-.58-.24H2.461A2.464 2.464 0 0 0 0 2.46v37.08A2.464 2.464 0 0 0 2.46 42h38.72a.82.82 0 0 0 .82-.82V17.944a.82.82 0 0 0-.82-.82M25.264 2.8l5.074 5.074h-4.254a.82.82 0 0 1-.82-.82zM14.766 40.359h-3.61v-5.711h3.61zm8.53 0h-3.608V29.941h3.609zm8.532 0h-3.61V24.2h3.61z"/><path fill="#fff" d="M38.248 25.594a.86.86 0 0 0-1.215 0 .87.87 0 0 0-.252.607c0 .227.092.448.252.608s.382.252.608.252a.87.87 0 0 0 .607-.252.87.87 0 0 0 .252-.608.87.87 0 0 0-.252-.607M12.51 4.703a.86.86 0 0 0-.859.86v1.546c-3.956.429-7.045 3.79-7.045 7.857 0 4.359 3.546 7.904 7.905 7.904 4.068 0 7.428-3.088 7.857-7.044h1.546a.86.86 0 0 0 .86-.86c0-5.659-4.605-10.263-10.263-10.263m0 16.448a6.19 6.19 0 0 1-6.185-6.185 6.195 6.195 0 0 1 5.326-6.126v6.126c0 .475.385.86.86.86h6.125a6.195 6.195 0 0 1-6.125 5.325m.86-7.044V6.465a8.56 8.56 0 0 1 7.642 7.642zM21.914 25.287H5.5a.86.86 0 0 0 0 1.719h16.414a.86.86 0 0 0 0-1.719M11 29.434H5.5a.86.86 0 0 0 0 1.718H11a.86.86 0 0 0 0-1.718M15.911 29.685a.87.87 0 0 0-.607-.251.862.862 0 0 0-.608 1.467c.16.16.38.251.608.251a.87.87 0 0 0 .607-.252.87.87 0 0 0 .252-.607.87.87 0 0 0-.252-.608"/></svg>
